X:321
T:Quick Step,A. RH.321
R:march
S:Rev.R.Harrison’s MS,c1815,Cumbria
O:England
A:Temple Sowerby,Cumbria
Z:vmp.Simon Wilson. Review PJH, 2008.
M:2/4
L:1/16
Q:1/4=100
K:G
Bcdc B2A2|G2g2 f2e2|d2ed c2B2|AGAB A4|\
Bcdc B2A2|G2g2 f2e2|a2fd g2e^c|d2d2 d4:|!
|:fgab c’bag|fgag fedc|Bdgf edcB|AGAB A4|\
fgab c’bag|fgag fedc|B2g2 A2f2|g2g2 g4:|!
|:d6″Trio”Bc|d2B2 A2G2|F2G2 A2B2|cdcB A4|\
d6 Bc|d2B2 A2G2|F2G2 A2GF|G4 G4:|!
|:F2G2 A2B2|c6 B2|c2B2 c2B2|c6 Bc|\
d6 Bc|d2B2 A2G2|F2G2 A2GF|G4 G4:|

